packages/foundations/assets/icons/functional/images/business & payment/tickets_14.svg

<svg width="14" height="14" viewBox="0 0 14 14" fill="none" xmlns="http://www.w3.org/2000/svg">
<g clip-path="url(#clip0_184_171)">
<path fill-rule="evenodd" clip-rule="evenodd" d="M6.98996 4.20005C7.76396 4.20005 8.39996 4.81505 8.39996 5.58905V11.1891C8.39996 11.9631 7.76396 12.6001 6.98996 12.6001H2.80996C2.01396 12.6001 1.39996 11.9631 1.39996 11.1891V5.58905C1.39996 4.81505 2.01396 4.20005 2.80996 4.20005H6.98996ZM6.99996 5.61105H2.78896V11.2111H6.99996V5.61105ZM3.84996 9.80005V8.40005H4.54996V9.80005H3.84996ZM5.24696 9.80005V8.40005H5.94696V9.80005H5.24696ZM5.59996 2.10405C5.59996 1.71805 5.91796 1.40005 6.30496 1.40005H11.191C11.3762 1.39886 11.5599 1.43446 11.7313 1.50478C11.9028 1.5751 12.0585 1.67875 12.1896 1.80972C12.3206 1.94069 12.4244 2.09638 12.4949 2.26775C12.5653 2.43912 12.601 2.62277 12.6 2.80805V8.39205C12.601 8.57742 12.5653 8.76115 12.4948 8.93259C12.4243 9.10403 12.3204 9.25976 12.1892 9.39074C12.0581 9.52172 11.9022 9.62535 11.7306 9.69562C11.5591 9.76588 11.3753 9.80138 11.19 9.80005H10.51C10.3234 9.79927 10.1447 9.72487 10.0127 9.59305C9.88066 9.46122 9.80602 9.28261 9.80496 9.09605C9.80496 8.71005 10.123 8.39205 10.509 8.39205H11.191V2.80805H6.30496C6.1184 2.80727 5.93969 2.73287 5.80768 2.60105C5.67566 2.46922 5.60102 2.29061 5.59996 2.10405Z" fill="#1A1C1F"/>
</g>
<defs>
<clipPath id="clip0_184_171">
<rect width="14" height="14" fill="white"/>
</clipPath>
</defs>
</svg>

<svg xmlns="http://www.w3.org/2000/svg" width="14" height="14" fill="none"><g clip-path="url(#a)"><path fill="#1A1C1F" fill-rule="evenodd" d="M6.99 4.2c.774 0 1.41.615 1.41 1.39v5.6c0 .773-.636 1.41-1.41 1.41H2.81c-.796 0-1.41-.637-1.41-1.41v-5.6c0-.775.614-1.39 1.41-1.39zM7 5.611H2.789v5.6H7zm-3.15 4.19V8.4h.7v1.4zm1.397 0V8.4h.7v1.4zM5.6 2.103c0-.386.318-.704.705-.704h4.886A1.4 1.4 0 0 1 12.6 2.808v5.584A1.4 1.4 0 0 1 11.19 9.8h-.68a.71.71 0 0 1-.705-.704c0-.386.318-.704.704-.704h.682V2.808H6.305a.71.71 0 0 1-.705-.704" clip-rule="evenodd"/></g><defs><clipPath id="a"><path fill="#fff" d="M0 0h14v14H0z"/></clipPath></defs></svg>
